src/assets/icons/sector-transportation.svg

<svg xmlns="http://www.w3.org/2000/svg" width="16" height="16" overflow="visible"><path d="M14.627 11.768H1.323c-.099 0-.18.096-.18.212v.728c0 .118.081.214.18.214h.47v.912c0 .354.265.639.591.639h1.232c.326 0 .591-.285.591-.639v-.912h7.586v.912c0 .354.265.639.592.639h1.23c.326 0 .591-.285.591-.639v-.912h.421c.1 0 .179-.096.179-.214v-.728c0-.116-.079-.212-.179-.212zM14.358 6.567h-.618c-.07-.264-.143-.726-.2-1.088-.229-1.458-.443-2.834-1.344-2.834H9.919a.758.758 0 00.018-.162v-.497c0-.25-.105-.457-.237-.457H6.125c-.131 0-.237.207-.237.457v.497a.83.83 0 00.017.162H3.781c-.829 0-1.133 1.389-1.473 3.349-.035.201-.071.411-.104.573h-.612a.45.45 0 00-.449.449v3.423a.45.45 0 00.449.449h12.766a.45.45 0 00.447-.449V7.016a.45.45 0 00-.447-.449zM3.097 6.13c.105-.6.416-2.403.728-2.684h8.353c.262.184.479 1.563.572 2.157.062.397.113.709.17.964h-9.9c.022-.121.048-.264.077-.437zm-.18 3.864a1.141 1.141 0 11.002-2.282 1.141 1.141 0 01-.002 2.282zm7.864-.75H5.043V8.47h5.738v.774zm2.298.75a1.141 1.141 0 110-2.282 1.141 1.141 0 010 2.282z"/><path d="M1.793 5.778v-.486c0-.102-.1-.184-.224-.184H.224C.1 5.108 0 5.19 0 5.292v.486c0 .101.1.184.224.184H1.57c.123-.001.223-.083.223-.184zM15.776 5.108H14.43c-.123 0-.225.082-.225.184v.486c0 .101.102.184.225.184h1.346c.124-.001.224-.083.224-.184v-.486c0-.102-.1-.184-.224-.184z"/></svg>

<?xml version="1.0" encoding="utf-8"?>
<!-- Generator: Adobe Illustrator 15.1.0, SVG Export Plug-In  -->
<!DOCTYPE svg PUBLIC "-//W3C//DTD SVG 1.1//EN" "http://www.w3.org/Graphics/SVG/1.1/DTD/svg11.dtd" [
	<!ENTITY ns_flows "http://ns.adobe.com/Flows/1.0/">
]>
<svg version="1.1"
	 xmlns="http://www.w3.org/2000/svg" xmlns:xlink="http://www.w3.org/1999/xlink" xmlns:a="http://ns.adobe.com/AdobeSVGViewerExtensions/3.0/"
	 x="0px" y="0px" width="16px" height="16px" viewBox="0 0 16 16" overflow="visible" enable-background="new 0 0 16 16"
	 xml:space="preserve">
<defs>
</defs>
<g display="none">
	<path display="inline" d="M9.31,8.354c-0.212-0.385-0.452-0.74-0.718-1.058C8.176,6.8,7.697,6.397,7.176,6.101
		c0.73-0.593,1.206-1.486,1.206-2.5c0-1.788-1.448-3.235-3.234-3.235S1.914,1.813,1.914,3.601c0,1.014,0.477,1.907,1.207,2.5
		C2.607,6.394,2.135,6.789,1.723,7.277C0.666,8.528,0,10.352,0,12.383c0,0.16,0.012,0.31,0.04,0.453
		c0.311,1.767,2.479,2.406,5.11,2.406c0.771,0,1.492-0.039,2.148-0.136c-0.103-0.233-0.172-0.469-0.213-0.698
		c-0.032-0.17-0.05-0.364-0.05-0.567c0-1.847,0.607-3.623,1.666-4.875C8.892,8.741,9.098,8.541,9.31,8.354z"/>
</g>
<path display="none" d="M14.737,10.05c-0.373-0.446-0.806-0.767-1.267-0.974c0.885-0.422,1.501-1.317,1.501-2.362
	c0-1.45-1.176-2.625-2.624-2.625c-1.45,0-2.626,1.175-2.626,2.625c0,1.045,0.616,1.939,1.501,2.361
	c-0.455,0.206-0.885,0.521-1.255,0.961c-0.81,0.956-1.274,2.345-1.274,3.805c0,0.095,0.006,0.185,0.022,0.269
	c0.233,1.329,2.375,1.525,3.632,1.525c2.438,0,3.489-0.434,3.633-1.503C15.994,14.041,16,13.944,16,13.841
	C16,12.389,15.54,11.009,14.737,10.05z"/>
<path display="none" d="M2.459,8.692l3.72-1.914C6.158,6.72,6.145,6.66,6.145,6.597c0-0.479,0.668-0.867,1.496-0.867
	c0.826,0,1.496,0.388,1.496,0.867c0,0.477-0.67,0.866-1.496,0.866c-0.169,0-0.329-0.02-0.48-0.05L3.065,9.521l3.089,3.436
	c0.075,0.075,0.175,0.116,0.282,0.116c0.101,0,0.197-0.037,0.271-0.105l9.154-5.218l0.021-0.017C15.957,7.657,16,7.557,16,7.45
	s-0.043-0.206-0.117-0.281L9.115,1.92C8.969,1.778,8.722,1.775,8.572,1.911L0.148,5.656L0.13,5.664L0.117,5.677
	c-0.156,0.156-0.156,0.409-0.003,0.561l1.512,1.682v4.371h0.03l-1.013,1.898h2.979L2.61,12.291h0.028V9.046L2.459,8.692z"/>
<path display="none" d="M12.864,4.662V2.585c0-0.15-0.116-0.272-0.26-0.272h-1.474c-0.144,0-0.261,0.122-0.261,0.272v0.919L8,1.839
	L0,6.482h3.948H16L12.864,4.662z"/>
<path display="none" d="M2.573,13.902c0,0.144,0.116,0.26,0.259,0.26h1.762V9.453h2.708v4.709h5.944c0.143,0,0.26-0.116,0.26-0.26
	V7.787H2.573V13.902z M9.435,9.709c0-0.155,0.146-0.28,0.325-0.28h1.296c0.18,0,0.323,0.125,0.323,0.28v1.867
	c0,0.155-0.144,0.28-0.323,0.28H9.76c-0.18,0-0.325-0.125-0.325-0.28V9.709z"/>
<path display="none" d="M15.386,4.082h-1.832c-0.215-0.485-0.668-1.555-0.763-1.78c-0.274-0.655-0.617-1.471-1.445-1.471H4.421
	c-1.067,0-1.394,0.896-1.663,1.638C2.66,2.737,2.55,3.041,2.393,3.378l-0.32,0.703H0.614C0.274,4.082,0,4.357,0,4.696v9.861
	c0,0.34,0.274,0.613,0.614,0.613h14.771c0.339,0,0.614-0.273,0.614-0.613V4.696C16,4.357,15.725,4.082,15.386,4.082z M3.89,4.074
	C4.073,3.679,4.205,3.32,4.317,3.013c0.046-0.128,0.143-0.396,0.21-0.531h6.536c0.052,0.104,0.121,0.259,0.206,0.463
	c0.138,0.326,0.291,0.759,0.498,1.137H3.886L3.89,4.074z M11.104,10.554H8.89v2.175H7.036v-2.175H4.896V8.7h2.141V6.522H8.89V8.7
	h2.215V10.554z"/>
<path display="none" d="M3.122,4.155l0.685,0.686C4.359,3.039,6.02,1.716,8,1.716c1.962,0,3.61,1.299,4.178,3.076l0.637-0.637
	l0.628,0.629C12.838,2.332,10.636,0.5,8,0.5c-2.603,0-4.777,1.786-5.414,4.192L3.122,4.155z"/>
<path display="none" d="M14.018,7.549l-1.203-1.084L11.61,7.549l-1.202-1.084L9.203,7.549L8,6.465L6.797,7.549L5.593,6.465
	L4.39,7.549L3.186,6.465L1.982,7.549L0.779,6.465v1.411v0.755v6.541c0,0.183,0.168,0.328,0.376,0.328h13.689
	c0.208,0,0.376-0.146,0.376-0.328V8.631V7.876V6.465L14.018,7.549z"/>
<path display="none" d="M15.947,5.572c-0.117-0.154-1.939-0.791-2.942-1.152c0,0-0.552,1.089-1.558,0.733
	c-0.778-0.276-0.858-1.538-1.224-2.228l0.15-0.42c0.191-0.535-0.087-1.125-0.621-1.318L7.685,0.445
	C7.149,0.254,6.56,0.532,6.367,1.066L6.253,1.385c-0.802,0.043-1.41,0.642-1.535,0.718c-0.152,0.094-0.473,0.89-1.074,0.716
	c-0.603-0.174-0.48-1.124-0.544-1.328C3.035,1.284,3.18,1.276,2.723,1.085C1.776,0.749,0.421,1.442,0.09,2.378
	c-0.332,0.938,0.286,2.327,1.233,2.662c0.475,0.139,0.368,0.04,0.547-0.079c0.179-0.118,0.792-0.98,1.371-0.736
	c0.578,0.243,0.213,1.11,0.273,1.279c0.049,0.141,0.149,1.02,0.779,1.557l-3.071,8.554l4.522,0.001l2.623-7.307
	c0.74-0.337,1.644-1.258,2.408-0.987c1.006,0.355,0.638,1.597,0.638,1.597c1.007,0.35,2.824,1.001,3.012,0.955
	c0.385-0.097,0.894-1.752,1.005-2.065C15.54,7.497,16.187,5.889,15.947,5.572z"/>
<path display="none" d="M9.99,3.678c0.053-0.057,0.107-0.126,0.16-0.196C7.948,2.547,5.312,2.688,3.313,4.807
	c-1.019,1.08-1.685,3.28-0.439,4.521c0.462,0.461,1.138,0.63,1.815,0.729C5.313,9.218,9.02,4.374,9.99,3.678z"/>
<path display="none" d="M13.093,5.692c-0.21-0.261-0.444-0.504-0.691-0.737c-0.081,0.078-0.27,0.267-0.387,0.423
	c-0.474,0.993-4.022,4.924-4.915,5.894c-0.18,0.505-1.147,0.896-1.29,1.992c-0.304,2.331,2.697,3.618,5.388,2.042
	C15.159,12.988,15.54,8.753,13.093,5.692z M9.057,14.376c-0.731,0.491-1.614,0.456-1.972-0.078
	c-0.357-0.534-0.053-1.363,0.679-1.854c0.732-0.489,1.616-0.454,1.973,0.079C10.093,13.056,9.79,13.886,9.057,14.376z"/>
<polygon display="none" points="1.384,15.971 1.386,15.959 1.375,15.963 "/>
<path display="none" d="M14.501,0.111c-0.078,0.215-0.499,0.724-0.896,0.79c-1.759,0.421-2.649,2.112-2.464,2.901l-0.324,0.385
	C10.33,4.465,9.592,5.184,8.614,6.414c-1.481,1.864-7.431,9.239-7.228,9.546c0.334,0.149,6.589-6.971,8.173-8.75
	c0.998-1.12,1.581-1.95,1.799-2.482l0.402-0.479c1.138-0.062,2.918-2.48,2.863-4.053C14.62-0.004,14.565-0.08,14.501,0.111z"/>
<path display="none" d="M14.079,15.052C8.54,9.909,6.527,6.254,4.915,1.661C4.786,1.376,4.596,1.345,4.521,1.345
	c-0.1,0-0.192,0.046-0.253,0.127C4.188,1.577,4.17,1.724,4.217,1.887C5.853,7.644,9.534,13.279,13.361,15.9
	C13.445,15.965,13.547,16,13.657,16c0.216,0,0.426-0.133,0.523-0.331C14.273,15.477,14.246,15.263,14.079,15.052z"/>
<path display="none" d="M10.688,9.786c-0.162,0.134-1.611-1.579,0.16-3.064c0.118-0.112,0.241-0.119,0.302-0.056
	C11.409,6.82,12.481,8.301,10.688,9.786z"/>
<path display="none" d="M8.971,7.37c-0.156,0.119-1.43-1.53,0.275-2.834c0.113-0.1,0.228-0.102,0.28-0.04
	C9.762,4.65,10.695,6.067,8.971,7.37z"/>
<path display="none" d="M7.49,4.952C7.349,5.05,6.296,3.562,7.835,2.484c0.103-0.083,0.204-0.081,0.247-0.024
	C8.281,2.603,9.046,3.876,7.49,4.952z"/>
<path display="none" d="M6.365,2.271C6.256,2.375,5.139,1.225,6.33,0.08c0.078-0.086,0.165-0.098,0.211-0.055
	C6.734,0.122,7.571,1.125,6.365,2.271z"/>
<path display="none" d="M6.362,10.184c0.226-0.091-0.702-2.496-3.175-1.529C3.01,8.712,2.933,8.833,2.965,8.927
	C2.977,9.274,3.877,11.17,6.362,10.184z"/>
<path display="none" d="M4.72,7.476c0.206-0.09-0.732-2.292-2.995-1.315c-0.163,0.059-0.23,0.173-0.198,0.26
	C1.55,6.742,2.447,8.473,4.72,7.476z"/>
<path display="none" d="M3.265,5.059C3.451,4.994,2.784,3.01,0.742,3.706c-0.146,0.04-0.212,0.135-0.19,0.213
	C0.549,4.201,1.212,5.772,3.265,5.059z"/>
<path display="none" d="M2.62,2.461c0.149-0.013,0.028-1.596-1.601-1.463C0.903,1,0.836,1.057,0.839,1.12
	C0.785,1.326,0.979,2.604,2.62,2.461z"/>
<path display="none" d="M16,5.227l-0.981-1.061c-0.619,0.582-2.471,0.97-3.052,0.352c-0.581-0.619-0.447-2.664,0.172-3.245
	l-0.882-1.087c-0.254,0.239-0.656,0.227-0.896-0.028L0.028,9.877C0.267,10.133,0.255,10.534,0,10.774l0.881,1.086
	c0.619-0.58,2.749-1.012,3.331-0.393c0.582,0.617,0.168,2.705-0.45,3.287l0.981,1.061c0.254-0.238,0.656-0.227,0.896,0.029
	l10.333-9.721C15.732,5.868,15.745,5.466,16,5.227z M8.167,12.047L4.085,7.965l0.707-0.707l4.082,4.082L8.167,12.047z M11.632,8.582
	L7.55,4.5l0.707-0.707l4.082,4.082L11.632,8.582z"/>
<path display="none" d="M15.252,1.22c0.001,0,0.002-0.002,0.002-0.002c-0.001,0-0.002,0-0.003,0c-0.001,0-0.001-0.001-0.001-0.001
	c0,0-0.001,0.001-0.001,0.001c-1.577-0.354-2.757,0.321-3.493,0.84c-0.317,0.238-1.961,2.707-2.503,3.468
	c0.706-0.204,1.445-0.103,2.089,0.196c-0.448,0.629-0.918,1.287-1.394,1.954l0.763,0.889c0.533-0.748,1.061-1.488,1.562-2.19
	c0.521,0.513,0.865,1.184,0.859,1.918c0.542-0.761,2.343-3.117,2.464-3.495C15.848,3.931,16.102,2.595,15.252,1.22z"/>
<path display="none" d="M4.692,15.043c-0.405,0.565,0.494,1.264,0.926,0.659c0.164-0.229,1.608-2.256,3.338-4.68l-0.775-0.871
	C6.381,12.675,4.855,14.814,4.692,15.043z"/>
<path display="none" d="M15.021,15.076c-0.372-0.44-6.771-8.019-9.611-11.382l0.228-0.191L5.5,2.534c0,0,1.278-1.624,4.629-2.159
	c0.02,0.003,0.015-0.32,0.015-0.32C7.265-0.175,6.168,0.371,5.697,0.77c-0.393,0.333-1.322,1.09-1.626,1.337L4.07,2.106
	C3.707,1.674,2.905,2.487,3.147,2.775l0.055,0.063c0,0,0.001,0.001,0.001,0.002C2.907,3.099,2.004,3.887,1.611,4.218
	C1.14,4.617,0.416,5.606,0.162,8.482c0,0,0.317,0.061,0.316,0.04C1.57,5.308,3.384,4.32,3.384,4.32l0.931,0.297l0.227-0.191
	c2.864,3.392,9.251,10.958,9.611,11.383C14.602,16.344,15.5,15.646,15.021,15.076z"/>
<path d="M14.627,11.768H1.323c-0.099,0-0.18,0.096-0.18,0.212v0.728c0,0.118,0.081,0.214,0.18,0.214h0.47v0.912
	c0,0.354,0.265,0.639,0.591,0.639h1.232c0.326,0,0.591-0.285,0.591-0.639v-0.912h7.586v0.912c0,0.354,0.265,0.639,0.592,0.639h1.23
	c0.326,0,0.591-0.285,0.591-0.639v-0.912h0.421c0.1,0,0.179-0.096,0.179-0.214V11.98C14.806,11.864,14.727,11.768,14.627,11.768z"/>
<path d="M14.358,6.567H13.74c-0.07-0.264-0.143-0.726-0.2-1.088c-0.229-1.458-0.443-2.834-1.344-2.834H9.919
	C9.93,2.594,9.937,2.541,9.937,2.483V1.986c0-0.25-0.105-0.457-0.237-0.457H6.125c-0.131,0-0.237,0.207-0.237,0.457v0.497
	c0,0.058,0.007,0.111,0.017,0.162H3.781c-0.829,0-1.133,1.389-1.473,3.349C2.273,6.195,2.237,6.405,2.204,6.567H1.592
	c-0.248,0-0.449,0.202-0.449,0.449v3.423c0,0.247,0.201,0.449,0.449,0.449h12.766c0.246,0,0.447-0.202,0.447-0.449V7.016
	C14.806,6.77,14.604,6.567,14.358,6.567z M3.097,6.13C3.202,5.53,3.513,3.727,3.825,3.446h8.353
	c0.262,0.184,0.479,1.563,0.572,2.157C12.812,6,12.863,6.312,12.92,6.567h-9.9C3.042,6.446,3.068,6.303,3.097,6.13z M2.917,9.994
	c-0.629,0-1.14-0.511-1.14-1.141c0-0.629,0.51-1.14,1.14-1.14s1.14,0.51,1.14,1.14C4.057,9.483,3.546,9.994,2.917,9.994z
	 M10.781,9.244H5.043V8.47h5.738V9.244z M13.079,9.994c-0.63,0-1.141-0.511-1.141-1.141c0-0.629,0.511-1.14,1.141-1.14
	s1.14,0.51,1.14,1.14C14.219,9.483,13.709,9.994,13.079,9.994z"/>
<path d="M1.793,5.778V5.292c0-0.102-0.1-0.184-0.224-0.184H0.224C0.1,5.108,0,5.19,0,5.292v0.486c0,0.101,0.1,0.184,0.224,0.184
	h1.346C1.693,5.961,1.793,5.879,1.793,5.778z"/>
<path d="M15.776,5.108h-1.346c-0.123,0-0.225,0.082-0.225,0.184v0.486c0,0.101,0.102,0.184,0.225,0.184h1.346
	C15.9,5.961,16,5.879,16,5.778V5.292C16,5.19,15.9,5.108,15.776,5.108z"/>
<path display="none" d="M6.153,0.99c0.005,0.233,0.078,0.382,0.238,0.559c0.298,0.331,0.833,0.585,1.002,0.996
	c0.056,0.134,0.08,0.288,0.112,0.426c0.02,0.085,0.025,0.152,0.042,0.206C7.664,3.178,7.779,3.18,7.9,3.18
	c0.487-0.002,0.923-0.037,1.348-0.096C9.303,3.053,9.369,3.021,9.45,2.913c0.171-0.227,0.408-0.619,0.511-0.865
	c0.362-0.876,0.669-1.437,0.661-2.034C10.254-0.031,9.838,0.05,9.463,0.049c-0.208,0-0.383-0.008-0.564,0.087
	c-0.21,0.11-0.188,0.349-0.352,0.451C8.275,0.755,7.472,0.614,7.176,0.562c-0.357-0.063-0.65-0.129-0.888-0.358
	C6.216,0.235,6.197,0.254,6.11,0.269c0.047,0.075,0.059,0.247,0.048,0.334C6.183,0.729,6.15,0.84,6.153,0.99z"/>
<path display="none" d="M12.967,11.984c0.223-0.379,0.443-2.098,0.272-2.441c-0.171-0.345-0.55-0.332-0.36-1.28
	c0.086-0.537,0.181-3.337-0.898-3.982c-0.289-0.173-0.707-0.343-1.164-0.5C9.869,4.133,8.938,4.229,7.905,4.234
	c-0.039,0-0.077,0-0.115,0c-0.706,0-1.394-0.037-2.044-0.337c-0.058-0.027-0.105-0.065-0.16-0.095
	C5.023,4.075,4.55,4.403,4.406,4.769C4.029,5.724,3.413,7.557,3.55,8.13C3.687,8.703,3.75,8.804,3.53,9.061
	c-0.219,0.258-1.084,2.459-0.757,3.888c0.086,0.641,0.171,0.901,0.479,1.073c0.309,0.171,6.153,3.069,9.354,1.528
	c0.462-0.172,0.531-1.849,0.291-2.568C12.658,12.263,12.745,12.363,12.967,11.984z M8.647,12.664l-1.233-2.387l-0.858,1.354
	l-0.891-0.564l1.188-1.875L5.642,6.848l0.937-0.484l0.928,1.796L8.67,6.324l0.891,0.564L8.067,9.246l1.517,2.935L8.647,12.664z"/>
<path display="none" d="M15.742,1.834c-0.105,0-2.629,0-5.604,0c-0.003,1.179-0.96,2.133-2.138,2.133
	c-1.18,0-2.136-0.955-2.139-2.133c-2.926,0-5.389,0-5.493,0C0.036,1.834,0,1.76,0,2.166c0,0.406,0,2.47,0,3.06
	c0,0.59,0.036,0.59,0.369,0.59c0.332,0,3.021,0,3.021,0s0,7.323,0,7.839c0,0.516,0,0.517,0.333,0.517c0.332,0,8.001,0,8.443,0
	c0.442,0,0.442,0,0.442-0.443c0-0.442,0-7.913,0-7.913s2.617,0,2.986,0S16,5.816,16,5.484c0-0.331,0-2.986,0-3.281
	C16,1.909,16,1.834,15.742,1.834z"/>
<path display="none" d="M5.503,10.694c0.417-0.419,0.817-0.812,1.172-1.158c-0.52-0.407-0.65-0.421-0.65-0.421
	c-0.086-0.178,0.96-1.47,0.743-3.142C6.458,3.585,4.053,0.392,2.551,0.12C0.9-0.179-0.771,3.556,0.382,6.881
	C1.339,9.639,3.129,9.52,5.377,10.61C5.417,10.63,5.461,10.669,5.503,10.694z"/>
<path display="none" d="M10.757,14.233c-0.475-0.68-1.048-1.425-1.604-2.11c-0.424,0.473-0.844,1.03-1.208,1.617
	c0.409,0.713,0.792,1.46,1.121,2.159l2.761-0.004C11.459,15.284,11.1,14.723,10.757,14.233z"/>
<path display="none" d="M15.581,0.932c-0.086,0.144-2.399,5.58-2.399,5.58l-1.135-0.033c0,0,1.605-5.756,1.535-5.873
	c-0.07-0.116-0.228-0.069-0.388,0.084c-0.149,0.143-1.963,4.955-2.193,5.564c-0.305-0.075-0.602-0.124-0.881-0.139
	c0.087-0.621,0.786-5.675,0.714-5.912c-0.076-0.251-0.35,0.049-0.35,0.049L8.678,6.768c-0.717,1.563,0.194,2.444,0.1,2.618
	c0,0-0.218,0.008-1.288,0.867c-0.736,0.592-2.476,2.501-3.657,4.045c-0.361,0.472-0.741,1.01-1.129,1.6h2.82
	c1.076-2.043,2.633-4.469,3.838-4.991c2.292-0.992,4.052-1.107,4.736-3.359c0,0,1.94-6.583,1.902-6.708
	C15.962,0.712,15.68,0.764,15.581,0.932z"/>
<path display="none" d="M2.247,14.283c0,0.209-0.111,0.376-0.25,0.376H0.25c-0.138,0-0.25-0.167-0.25-0.376v-4.254
	c0-0.206,0.111-0.375,0.25-0.375h1.748c0.138,0,0.25,0.169,0.25,0.375V14.283z"/>
<path display="none" d="M15.747,8.288c-0.566,0-1.608,0.802-2.297,1.332c-0.467,0.361-0.761,0.589-0.987,0.671
	c-0.475,0.177-1.562,0.332-2.325,0.332c-0.652,0-1.116-0.095-1.259-0.56c-0.035-0.11-0.091-0.401,0.13-0.703
	c0.063-0.083,0.149-0.191,0.255-0.319c0.419-0.519,1.687-2.091,1.289-2.688c-0.06-0.094-0.093-0.111-0.093-0.112
	c-0.13,0.004-0.536,0.443-0.778,0.706C9.437,7.209,9.209,7.455,8.96,7.665C8.326,8.202,7.596,8.444,7.455,8.487l-0.11,0.02
	c-0.022,0-0.48-0.006-1.036-0.006c-0.824,0-1.428,0.013-1.7,0.037c-0.208,0.071-0.938,1.069-1.596,2.306l0.019,2.78h5.584
	c2.25,0,6.688-3.897,7.384-5.051C15.944,8.288,15.84,8.288,15.747,8.288z"/>
<path display="none" d="M6.309,7.398c0.426,0,0.795,0.004,0.949,0.005C7.379,7.365,7.928,7.167,8.39,6.776
	c0.206-0.175,0.415-0.4,0.617-0.617c0.499-0.539,0.945-1.02,1.471-1.02c0.229,0,0.561,0.096,0.844,0.552
	c0.8,1.203-0.369,2.857-1.137,3.827c0.737-0.007,1.687-0.168,1.982-0.277c0.101-0.038,0.487-0.336,0.743-0.534
	c0.193-0.149,0.404-0.312,0.623-0.471V1.691c0-0.193-0.123-0.349-0.276-0.349H6.231c-0.152,0-0.273,0.156-0.273,0.349v5.708
	C6.078,7.398,6.199,7.398,6.309,7.398z"/>
</svg>
